icons/svg/icons8/dinghy.svg

<svg width="26" height="26" viewBox="0 0 26 26" fill="none" xmlns="http://www.w3.org/2000/svg">
<g clip-path="url(#clip0)">
<path d="M26 23.934C25.732 24.028 25.409 24.094 25 24.094C24.167 24.094 22.887 23.866 22 23.168C21.113 23.866 19.833 24.094 19 24.094C18.167 24.094 16.887 23.866 16 23.168C15.113 23.866 13.833 24.094 13 24.094C12.167 24.094 10.887 23.866 10 23.168C9.113 23.866 7.833 24.094 7 24.094C6.167 24.094 4.887 23.866 4 23.168C3.113 23.866 1.833 24.094 1 24.094C0.626 24.094 0.301 24.061 0 24.014V25.86C0.291 25.891 0.619 25.911 1 25.911C2.734 25.911 3.369 25.481 4 24.985C4.887 25.683 6.167 25.911 7 25.911C7.833 25.911 9.113 25.683 10 24.985C10.887 25.683 12.167 25.911 13 25.911C13.833 25.911 15.113 25.683 16 24.985C16.887 25.683 18.167 25.911 19 25.911C19.833 25.911 21.113 25.683 22 24.985C22.887 25.683 24.167 25.911 25 25.911C25.414 25.911 25.736 25.848 26 25.761V23.934Z" fill="#333333"/>
<path d="M13.36 22.887L21.004 16H0.481043C-0.0709572 16 4.2771e-05 16.447 4.2771e-05 17C4.2771e-05 18.614 1.25804 19.912 2.81904 20.771C2.17204 20.992 1.50604 21.094 1.00004 21.094C0.626043 21.094 0.301043 21.061 4.2771e-05 21.014V22.86C0.291043 22.891 0.619043 22.911 1.00004 22.911C2.73404 22.911 3.36904 22.481 4.00004 21.985C4.88704 22.683 6.16704 22.911 7.00004 22.911C7.83304 22.911 9.11304 22.683 10 21.985C10.887 22.683 12.167 22.911 13 22.911C13.107 22.91 13.239 22.895 13.36 22.887Z" fill="#333333"/>
<path d="M24.9998 21.094C24.2848 21.094 23.2538 20.906 22.4118 20.417C23.7768 19.574 25.1028 18.417 25.8118 17.031C26.1648 16.342 25.8908 16 25.2028 16H22.9448L16.1738 22.09C17.0488 22.694 18.2158 22.91 18.9988 22.91C19.8318 22.91 21.1118 22.682 21.9988 21.984C22.8858 22.682 24.1658 22.91 24.9988 22.91C25.4128 22.91 25.7348 22.847 25.9988 22.76V20.934C25.7318 21.027 25.4088 21.094 24.9998 21.094Z" fill="#333333"/>
<path d="M15.5 7C16.8807 7 18 5.88071 18 4.5C18 3.11929 16.8807 2 15.5 2C14.1193 2 13 3.11929 13 4.5C13 5.88071 14.1193 7 15.5 7Z" fill="#333333"/>
<path d="M21.8228 11.66C21.4358 11.476 12.9188 7.432 12.9188 7.432C11.5288 6.674 10.3328 7.25 9.50683 8.633L4.31083 17.092C4.15783 17.427 4.20083 17.819 4.42283 18.113C4.61283 18.364 4.90883 18.509 5.21983 18.509C5.27083 18.509 5.32383 18.505 5.37483 18.497L11.1668 17.651C11.4848 17.6 11.7598 17.4 11.9048 17.112L15.2898 11.73C15.2898 11.73 20.2398 13.721 20.6668 13.918C21.2208 14.174 22.2098 14.302 22.5888 13.48C22.9678 12.658 22.4078 11.938 21.8228 11.66Z" fill="#333333"/>
</g>
<defs>
<clipPath id="clip0">
<rect width="26" height="26" fill="white"/>
</clipPath>
</defs>
</svg>

<?xml version="1.0" encoding="utf-8"?>
<!-- Generator: Adobe Illustrator 15.0.0, SVG Export Plug-In . SVG Version: 6.00 Build 0)  -->
<!DOCTYPE svg PUBLIC "-//W3C//DTD SVG 1.1//EN" "http://www.w3.org/Graphics/SVG/1.1/DTD/svg11.dtd">
<svg version="1.1" id="Layer_1" xmlns="http://www.w3.org/2000/svg" xmlns:xlink="http://www.w3.org/1999/xlink" x="0px" y="0px"
	 width="26px" height="26px" viewBox="0 0 26 26" enable-background="new 0 0 26 26" xml:space="preserve">
<rect x="902" y="1469" fill="#333333" width="26" height="2"/>
<rect x="902" y="1489" fill="#333333" width="26" height="2"/>
<rect x="906" y="1474" fill="#333333" width="18" height="2"/>
<rect x="902" y="1479" fill="#333333" width="26" height="2"/>
<rect x="906" y="1484" fill="#333333" width="18" height="2"/>
<rect x="902" y="1467" fill="none" width="26" height="26"/>
<rect fill="none" width="26" height="26"/>
<path fill="#333333" d="M26,23.934c-0.268,0.094-0.591,0.16-1,0.16c-0.833,0-2.113-0.228-3-0.926c-0.887,0.698-2.167,0.926-3,0.926
	s-2.113-0.228-3-0.926c-0.887,0.698-2.167,0.926-3,0.926s-2.113-0.228-3-0.926c-0.887,0.698-2.167,0.926-3,0.926
	s-2.113-0.228-3-0.926c-0.887,0.698-2.167,0.926-3,0.926c-0.374,0-0.699-0.033-1-0.08v1.846c0.291,0.031,0.619,0.051,1,0.051
	c1.734,0,2.369-0.43,3-0.926c0.887,0.698,2.167,0.926,3,0.926s2.113-0.228,3-0.926c0.887,0.698,2.167,0.926,3,0.926
	s2.113-0.228,3-0.926c0.887,0.698,2.167,0.926,3,0.926s2.113-0.228,3-0.926c0.887,0.698,2.167,0.926,3,0.926
	c0.414,0,0.736-0.063,1-0.15V23.934z"/>
<g>
	<path fill="#333333" d="M13.36,22.887L21.004,16H0.481C-0.071,16,0,16.447,0,17c0,1.614,1.258,2.912,2.819,3.771
		C2.172,20.992,1.506,21.094,1,21.094c-0.374,0-0.699-0.033-1-0.08v1.846c0.291,0.031,0.619,0.051,1,0.051
		c1.734,0,2.369-0.43,3-0.926c0.887,0.698,2.167,0.926,3,0.926s2.113-0.228,3-0.926c0.887,0.698,2.167,0.926,3,0.926
		C13.107,22.91,13.239,22.895,13.36,22.887z"/>
	<path fill="#333333" d="M25,21.094c-0.715,0-1.746-0.188-2.588-0.677c1.365-0.843,2.691-2,3.4-3.386
		C26.165,16.342,25.891,16,25.203,16h-2.258l-6.771,6.09c0.875,0.604,2.042,0.82,2.825,0.82c0.833,0,2.113-0.228,3-0.926
		c0.887,0.698,2.167,0.926,3,0.926c0.414,0,0.736-0.063,1-0.15v-1.826C25.732,21.027,25.409,21.094,25,21.094z"/>
</g>
<circle fill="#333333" cx="15.5" cy="4.5" r="2.5"/>
<path fill="#333333" d="M21.823,11.66c-0.387-0.184-8.904-4.228-8.904-4.228c-1.39-0.758-2.586-0.182-3.412,1.201l-5.196,8.459
	c-0.153,0.335-0.11,0.727,0.112,1.021c0.19,0.251,0.486,0.396,0.797,0.396c0.051,0,0.104-0.004,0.155-0.012l5.792-0.846
	c0.318-0.051,0.593-0.251,0.738-0.539l3.385-5.382c0,0,4.95,1.991,5.377,2.188c0.554,0.256,1.543,0.384,1.922-0.438
	S22.408,11.938,21.823,11.66z"/>
</svg>
